assets/img/icons/dribbble.svg

<svg width="32" height="32" viewBox="0 0 32 32" xmlns="http://www.w3.org/2000/svg">
    <title>Dribbble</title>
    <path d="M16 32c-8.822 0-16-7.178-16-16s7.178-16 16-16c8.823 0 16 7.178 16 16s-7.177 16-16 16zm13.494-13.81c-.468-.147-4.23-1.27-8.513-.584 1.788 4.912 2.515 8.913 2.655 9.744 3.066-2.073 5.249-5.357 5.858-9.16zm-8.156 10.411c-.203-1.199-.996-5.377-2.915-10.364l-.09.031c-7.708 2.686-10.476 8.032-10.722 8.534 2.318 1.807 5.23 2.885 8.389 2.885 1.893 0 3.698-.387 5.338-1.086zm-15.491-3.442c.309-.53 4.06-6.741 11.109-9.019l.538-.163c-.343-.776-.717-1.553-1.108-2.319-6.825 2.043-13.447 1.958-14.046 1.945l-.007.418c0 3.51 1.331 6.715 3.514 9.138zm-3.225-11.937c.611.008 6.242.032 12.635-1.665-2.265-4.026-4.707-7.41-5.067-7.904-3.824 1.803-6.682 5.328-7.568 9.569zm10.175-10.488c.378.506 2.86 3.886 5.1 8.001 4.859-1.821 6.917-4.587 7.163-4.937-2.414-2.141-5.587-3.444-9.06-3.444-1.103 0-2.175.133-3.203.38zm13.782 4.644c-.288.391-2.579 3.326-7.632 5.389.319.651.623 1.313.907 1.98l.294.705c4.548-.572 9.066.344 9.517.44-.03-3.226-1.183-6.188-3.086-8.514z" />
</svg>

<?xml version="1.0" encoding="UTF-8" standalone="no"?>
<svg width="32px" height="32px" viewBox="0 0 32 32" version="1.1" xmlns="http://www.w3.org/2000/svg" xmlns:xlink="http://www.w3.org/1999/xlink" xmlns:sketch="http://www.bohemiancoding.com/sketch/ns">
    <!-- Generator: Sketch 3.3.2 (12043) - http://www.bohemiancoding.com/sketch -->
    <title>Artboard 1</title>
    <desc>Created with Sketch.</desc>
    <defs></defs>
    <path d="M16,32 C7.178,32 0,24.822 0,16 C0,7.178 7.178,0 16,0 C24.823,0 32,7.178 32,16 C32,24.822 24.823,32 16,32 L16,32 Z M29.494,18.19 C29.026,18.043 25.264,16.92 20.981,17.606 C22.769,22.518 23.496,26.519 23.636,27.35 C26.702,25.277 28.885,21.993 29.494,18.19 L29.494,18.19 Z M21.338,28.601 C21.135,27.402 20.342,23.224 18.423,18.237 C18.393,18.248 18.363,18.257 18.333,18.268 C10.625,20.954 7.857,26.3 7.611,26.802 C9.929,28.609 12.841,29.687 16,29.687 C17.893,29.687 19.698,29.3 21.338,28.601 L21.338,28.601 Z M5.847,25.159 C6.156,24.629 9.907,18.418 16.956,16.14 C17.134,16.082 17.314,16.028 17.494,15.977 C17.151,15.201 16.777,14.424 16.386,13.658 C9.561,15.701 2.939,15.616 2.34,15.603 C2.336,15.742 2.333,15.881 2.333,16.021 C2.333,19.531 3.664,22.736 5.847,25.159 L5.847,25.159 Z M2.622,13.222 C3.233,13.23 8.864,13.254 15.257,11.557 C12.992,7.531 10.55,4.147 10.19,3.653 C6.366,5.456 3.508,8.981 2.622,13.222 L2.622,13.222 Z M12.797,2.734 C13.175,3.24 15.657,6.62 17.897,10.735 C22.756,8.914 24.814,6.148 25.06,5.798 C22.646,3.657 19.473,2.354 16,2.354 C14.897,2.354 13.825,2.487 12.797,2.734 L12.797,2.734 Z M26.579,7.378 C26.291,7.769 24,10.704 18.947,12.767 C19.266,13.418 19.57,14.08 19.854,14.747 C19.955,14.983 20.053,15.218 20.148,15.452 C24.696,14.88 29.214,15.796 29.665,15.892 C29.635,12.666 28.482,9.704 26.579,7.378 L26.579,7.378 Z" id="dribbble" sketch:type="MSShapeGroup"></path>
</svg>
